src/assets/instagram.svg

<svg xmlns="http://www.w3.org/2000/svg" xmlns:xlink="http://www.w3.org/1999/xlink" viewBox="0,0,256,256" width="24px" height="24px" fill-rule="nonzero"><g transform="translate(-42.66667,-42.66667) scale(1.33333,1.33333)"><g fill="#000000" fill-rule="nonzero" stroke="none" stroke-width="1" stroke-linecap="butt" stroke-linejoin="miter" stroke-miterlimit="10" stroke-dasharray="" stroke-dashoffset="0" font-family="none" font-weight="none" font-size="none" text-anchor="none" style="mix-blend-mode: normal"><g transform="scale(10.66667,10.66667)"><path d="M8,3c-2.757,0 -5,2.243 -5,5v8c0,2.757 2.243,5 5,5h8c2.757,0 5,-2.243 5,-5v-8c0,-2.757 -2.243,-5 -5,-5zM8,5h8c1.654,0 3,1.346 3,3v8c0,1.654 -1.346,3 -3,3h-8c-1.654,0 -3,-1.346 -3,-3v-8c0,-1.654 1.346,-3 3,-3zM17,6c-0.55228,0 -1,0.44772 -1,1c0,0.55228 0.44772,1 1,1c0.55228,0 1,-0.44772 1,-1c0,-0.55228 -0.44772,-1 -1,-1zM12,7c-2.757,0 -5,2.243 -5,5c0,2.757 2.243,5 5,5c2.757,0 5,-2.243 5,-5c0,-2.757 -2.243,-5 -5,-5zM12,9c1.654,0 3,1.346 3,3c0,1.654 -1.346,3 -3,3c-1.654,0 -3,-1.346 -3,-3c0,-1.654 1.346,-3 3,-3z"></path></g></g></g></svg>

<?xml version="1.0"?><svg xmlns="http://www.w3.org/2000/svg"  viewBox="0 0 24 24" width="24px" height="24px">    <path d="M 8 3 C 5.243 3 3 5.243 3 8 L 3 16 C 3 18.757 5.243 21 8 21 L 16 21 C 18.757 21 21 18.757 21 16 L 21 8 C 21 5.243 18.757 3 16 3 L 8 3 z M 8 5 L 16 5 C 17.654 5 19 6.346 19 8 L 19 16 C 19 17.654 17.654 19 16 19 L 8 19 C 6.346 19 5 17.654 5 16 L 5 8 C 5 6.346 6.346 5 8 5 z M 17 6 A 1 1 0 0 0 16 7 A 1 1 0 0 0 17 8 A 1 1 0 0 0 18 7 A 1 1 0 0 0 17 6 z M 12 7 C 9.243 7 7 9.243 7 12 C 7 14.757 9.243 17 12 17 C 14.757 17 17 14.757 17 12 C 17 9.243 14.757 7 12 7 z M 12 9 C 13.654 9 15 10.346 15 12 C 15 13.654 13.654 15 12 15 C 10.346 15 9 13.654 9 12 C 9 10.346 10.346 9 12 9 z"/></svg>
